src/Stylish/32/status/system-restart.svg

<?xml version="1.0" encoding="UTF-8" standalone="no"?>
<!-- Created with Inkscape (http://www.inkscape.org/) -->

<svg
   width="32"
   height="32"
   viewBox="0 0 32 32"
   version="1.1"
   id="svg5"
   inkscape:version="1.4.4 (dcaf3e7d9e, 2026-05-05)"
   sodipodi:docname="system-restart.svg"
   xmlns:inkscape="http://www.inkscape.org/namespaces/inkscape"
   xmlns:sodipodi="http://sodipodi.sourceforge.net/DTD/sodipodi-0.dtd"
   xmlns:xlink="http://www.w3.org/1999/xlink"
   xmlns="http://www.w3.org/2000/svg"
   xmlns:svg="http://www.w3.org/2000/svg">
  <sodipodi:namedview
     id="namedview7"
     pagecolor="#ffffff"
     bordercolor="#666666"
     borderopacity="1.0"
     inkscape:showpageshadow="2"
     inkscape:pageopacity="0.0"
     inkscape:pagecheckerboard="0"
     inkscape:deskcolor="#d1d1d1"
     inkscape:document-units="px"
     showgrid="false"
     inkscape:zoom="24.875"
     inkscape:cx="15.959799"
     inkscape:cy="15.959799"
     inkscape:window-width="1920"
     inkscape:window-height="1012"
     inkscape:window-x="0"
     inkscape:window-y="0"
     inkscape:window-maximized="1"
     inkscape:current-layer="svg5" />
  <defs
     id="defs2">
    <linearGradient
       inkscape:collect="always"
       xlink:href="#linearGradient1500"
       id="linearGradient2881"
       x1="29.000002"
       y1="29.000002"
       x2="16.000002"
       y2="3.0000002"
       gradientUnits="userSpaceOnUse"
       gradientTransform="matrix(1.076923,0,0,1.076923,-1.2307692,-1.2307692)" />
    <linearGradient
       inkscape:collect="always"
       id="linearGradient1500">
      <stop
         style="stop-color:#afe481;stop-opacity:1;"
         offset="0"
         id="stop1496" />
      <stop
         style="stop-color:#74c72b;stop-opacity:1;"
         offset="1"
         id="stop1498" />
    </linearGradient>
  </defs>
  <circle
     style="opacity:0.2;fill:#000000;fill-opacity:1;stroke:none;stroke-width:2.15385;stroke-linecap:round;stroke-linejoin:round;stroke-dasharray:none;stroke-opacity:1"
     id="path2871"
     cx="16"
     cy="17.000126"
     r="14" />
  <circle
     style="opacity:1;fill:url(#linearGradient2881);fill-opacity:1;stroke:none;stroke-width:2.15385;stroke-linecap:round;stroke-linejoin:round;stroke-dasharray:none;stroke-opacity:1"
     id="path2873"
     cx="16"
     cy="16"
     r="14" />
  <path
     id="path291"
     style="fill:#ffffff;stroke-width:0.94737;stroke-linecap:round;stroke-linejoin:round"
     d="M 16,7 C 12.513839,7 9.4939278,8.9820088 8,11.880859 V 9 H 7 v 4 1 H 8 8.2519531 12 V 13 H 8.5820312 C 9.7688003,10.068304 12.642647,8 16,8 c 3.727911,0 6.860197,2.549211 7.748047,6 h 1.025391 C 23.863828,9.9922387 20.283017,7 16,7 Z M 7.2265625,18 C 8.1361712,22.007762 11.716984,25 16,25 c 3.486162,0 6.506072,-1.982009 8,-4.880859 V 23 h 1 V 19 18 H 24.773438 24 23.748047 20 v 1 h 3.417969 C 22.2312,21.931696 19.357354,24 16,24 12.27209,24 9.139803,21.450789 8.2519531,18 Z" />
</svg>

<?xml version="1.0" encoding="UTF-8" standalone="no"?>
<!-- Created with Inkscape (http://www.inkscape.org/) -->

<svg
   width="32"
   height="32"
   viewBox="0 0 32 32"
   version="1.1"
   id="svg5"
   inkscape:version="1.2.1 (9c6d41e410, 2022-07-14)"
   sodipodi:docname="system-restart.svg"
   xmlns:inkscape="http://www.inkscape.org/namespaces/inkscape"
   xmlns:sodipodi="http://sodipodi.sourceforge.net/DTD/sodipodi-0.dtd"
   xmlns:xlink="http://www.w3.org/1999/xlink"
   xmlns="http://www.w3.org/2000/svg"
   xmlns:svg="http://www.w3.org/2000/svg">
  <sodipodi:namedview
     id="namedview7"
     pagecolor="#ffffff"
     bordercolor="#666666"
     borderopacity="1.0"
     inkscape:showpageshadow="2"
     inkscape:pageopacity="0.0"
     inkscape:pagecheckerboard="0"
     inkscape:deskcolor="#d1d1d1"
     inkscape:document-units="px"
     showgrid="false"
     inkscape:zoom="25.8125"
     inkscape:cx="15.98063"
     inkscape:cy="16"
     inkscape:window-width="1920"
     inkscape:window-height="1006"
     inkscape:window-x="0"
     inkscape:window-y="0"
     inkscape:window-maximized="1"
     inkscape:current-layer="svg5" />
  <defs
     id="defs2">
    <linearGradient
       inkscape:collect="always"
       xlink:href="#linearGradient1500"
       id="linearGradient4780"
       x1="30"
       y1="30"
       x2="2"
       y2="2"
       gradientUnits="userSpaceOnUse" />
    <linearGradient
       inkscape:collect="always"
       id="linearGradient1500">
      <stop
         style="stop-color:#afe481;stop-opacity:1;"
         offset="0"
         id="stop1496" />
      <stop
         style="stop-color:#74c72b;stop-opacity:1;"
         offset="1"
         id="stop1498" />
    </linearGradient>
  </defs>
  <path
     d="M 13,3.0000001 C 3.8988095,3.0000001 2.0000001,4.9398173 2.0000001,14 v 6 c 0,9.060183 1.8988094,11 10.9999999,11 h 6 c 9.10119,0 11,-1.939817 11,-11 V 14 C 30,4.9398172 28.10119,3.0000001 19,3.0000001"
     style="opacity:0.2;fill:#000000;stroke-width:1;stroke-linecap:round;stroke-linejoin:round"
     id="path563" />
  <path
     id="path530"
     style="fill:url(#linearGradient4780);fill-opacity:1;stroke-width:1;stroke-linecap:round;stroke-linejoin:round"
     d="M 13,2.0000001 C 3.8988185,2.0000001 2.0000001,3.9398263 2.0000001,13 v 6 c 0,9.060174 1.8988184,11 10.9999999,11 h 6 c 9.101182,0 11,-1.939826 11,-11 V 13 C 30,3.9398263 28.101182,2.0000001 19,2.0000001 Z" />
  <path
     id="path291"
     style="fill:#ffffff;stroke-width:0.94737;stroke-linecap:round;stroke-linejoin:round"
     d="M 16 7 C 12.513839 7 9.4939278 8.9820088 8 11.880859 L 8 9 L 7 9 L 7 13 L 7 14 L 8 14 L 8.2519531 14 L 12 14 L 12 13 L 8.5820312 13 C 9.7688003 10.068304 12.642647 8 16 8 C 19.727911 8 22.860197 10.549211 23.748047 14 L 24.773438 14 C 23.863828 9.9922387 20.283017 7 16 7 z M 7.2265625 18 C 8.1361712 22.007762 11.716984 25 16 25 C 19.486162 25 22.506072 23.017991 24 20.119141 L 24 23 L 25 23 L 25 19 L 25 18 L 24.773438 18 L 24 18 L 23.748047 18 L 20 18 L 20 19 L 23.417969 19 C 22.2312 21.931696 19.357354 24 16 24 C 12.27209 24 9.139803 21.450789 8.2519531 18 L 7.2265625 18 z " />
</svg>
